icons/1_Primary/Skiff.svg

<svg width="1024" height="1024" viewBox="0 0 1024 1024" fill="none" xmlns="http://www.w3.org/2000/svg">
<g clip-path="url(#clip0_2_3477)">
<path d="M512 1024C794.77 1024 1024 794.77 1024 512C1024 229.23 794.77 0 512 0C229.23 0 0 229.23 0 512C0 794.77 229.23 1024 512 1024Z" fill="#56595B"/>
<path d="M380.359 726.51C384.829 728.33 389.859 729.96 394.039 731.51C396.509 732.09 399.169 732.95 401.639 733.62L408.199 735L414.849 736.15C422.493 737.298 430.21 737.876 437.939 737.88C456.8 737.321 475.39 733.251 492.759 725.88C511.162 717.913 527.786 706.348 541.655 691.864C555.524 677.381 566.358 660.271 573.519 641.54L575.139 637.32C575.139 635.88 576.759 632.14 577.229 630.8C578.079 627.35 579.319 623.23 579.989 619.8C579.989 618.55 580.749 616.64 580.989 615.39C582.087 608.769 582.818 602.092 583.179 595.39V587.53C578.283 587.391 573.398 586.974 568.549 586.28C529.901 581.484 494.561 562.059 469.799 532C444.949 501.801 432.441 463.32 434.787 424.281C437.134 385.242 454.16 348.535 482.449 321.53C504.783 300.683 532.75 286.856 562.876 281.768C593.001 276.68 623.957 280.554 651.899 292.91C636.559 283.109 620.179 275.04 603.059 268.85C561.008 253.349 515.63 249.129 471.441 256.612C427.252 264.095 385.793 283.018 351.189 311.5C348.999 313.13 343.189 318.5 340.929 320.41C337.551 323.386 334.377 326.587 331.429 329.99C328.458 333.371 325.285 336.57 321.929 339.57C318.929 342.35 315.179 347.57 313.189 350.02L306.349 359.02C304.539 361.51 300.349 367.74 298.649 370.23C296.949 372.72 295.799 375 294.999 376.1C294.199 377.2 292.529 380.1 292.049 380.89C291.569 381.68 287.109 389.89 285.969 391.82C284.829 393.75 281.409 401.4 280.079 404.09L275.609 414.54C275.609 415.69 272.189 424.12 271.609 425.18C271.029 426.24 269.609 431.31 268.849 433.81C267.229 438.6 265.849 444.16 264.479 449.05C263.719 452.05 262.199 459.4 261.529 462.37V464.67C250.441 525.637 261.314 588.56 292.219 642.27C295.359 647.45 299.629 654.54 303.219 659.43C304.549 661.43 306.929 664.89 308.449 666.81L313.959 674.09L322.699 684.44L332.199 694.02C334.009 695.65 336.859 698.72 338.759 700.25L342.179 703.25L343.029 703.92L343.879 704.59L345.589 706.03C347.779 707.85 350.529 709.77 352.809 711.4L354.619 712.65L356.519 713.9C358.519 715.24 362.029 717.45 364.219 718.6C366.409 719.75 367.069 720.32 368.119 720.8L374.119 723.8C376.079 724.69 378.549 725.75 380.359 726.51ZM568.859 273.35H571.139L577.699 273.93C581.309 273.93 584.919 274.93 588.529 275.37H568.999C552.418 276.44 536.049 279.678 520.309 285C493.96 293.649 470.018 308.38 450.419 328C420.767 357.767 402.486 396.985 398.756 438.835C395.025 480.684 406.08 522.518 429.999 557.06V557C438.031 568.693 447.62 579.237 458.499 588.34C471.809 599.23 487.594 606.675 504.463 610.018C521.331 613.362 538.763 612.5 555.219 607.51C541.572 613.484 526.769 616.357 511.878 615.923C496.986 615.489 482.376 611.759 469.099 605C455.467 598.233 443.25 588.93 433.099 577.59C415.564 558.497 402.286 535.896 394.147 511.283C386.007 486.671 383.191 460.609 385.886 434.826C388.581 409.043 396.725 384.127 409.778 361.729C422.831 339.332 440.495 319.964 461.599 304.91C463.689 303.38 466.919 301.36 469.199 299.91C473.379 297.13 478.699 294.45 482.789 292.05C486.057 290.205 489.456 288.604 492.959 287.26C512.137 279.04 532.636 274.332 553.479 273.36H568.869L568.859 273.35ZM559.929 266.93C548.178 267.071 536.456 268.127 524.869 270.09C491.465 275.648 459.936 289.322 433.049 309.91C405.019 331.113 382.93 359.186 368.917 391.418C354.903 423.649 349.438 458.95 353.049 493.91C356.625 529.966 369.608 564.449 390.699 593.91C392.319 595.91 394.979 599.76 396.699 601.77C399.549 605.32 403.159 609.63 406.199 612.98C423.057 632.3 445.927 645.383 471.126 650.121C496.325 654.859 522.385 650.977 545.109 639.1C502.639 669.29 441.639 660.86 404.299 626L402.589 624.18L401.589 623.32L395.219 616.8C376.1 596.354 361.253 572.297 351.55 546.039C341.848 519.781 337.483 491.85 338.714 463.884C339.944 435.918 346.744 408.478 358.715 383.174C370.686 357.869 387.588 335.209 408.429 316.52C414.898 310.792 421.721 305.478 428.859 300.61C432.859 297.93 437.789 294.67 441.969 292.37C446.149 290.07 451.469 287.29 455.649 285.09C457.269 284.23 458.789 283.75 460.309 282.98C461.829 282.21 466.009 280.39 467.439 279.91C484.107 273.252 501.599 268.879 519.439 266.91C522.099 266.91 526.849 266.14 529.509 266.05H537.109C544.727 265.915 552.346 266.212 559.929 266.94V266.93ZM355.649 654C333.476 630.182 316.439 602.056 305.598 571.373C294.758 540.69 290.346 508.104 292.636 475.643C294.927 443.181 303.871 411.538 318.912 382.681C333.954 353.823 354.771 328.369 380.069 307.9C381.969 306.27 385.009 304.16 386.909 302.72C394.498 297.031 402.43 291.815 410.659 287.1C437.036 272.269 466.107 262.852 496.169 259.4L507.289 258.4H529.619L518.499 259.26L507.499 260.7L496.569 262.52C463.426 268.657 432.026 281.968 404.569 301.52C376.993 321.195 354.004 346.606 337.18 376.009C320.356 405.411 310.098 438.107 307.109 471.85C304.074 505.664 308.365 539.735 319.689 571.74C328.891 597.524 342.593 621.472 360.159 642.47L361.869 644.58L362.729 645.63L363.679 646.63C368.397 652.108 373.443 657.294 378.789 662.16C397.976 679.042 421.648 689.996 446.936 693.695C472.223 697.394 498.041 693.679 521.259 683C498.007 696.13 471.322 701.904 444.722 699.56C418.122 697.216 392.857 686.864 372.259 669.87C366.403 664.925 360.856 659.625 355.649 654ZM731.709 381.38C728.569 376.11 724.299 369.11 720.709 364.13C719.379 362.13 716.999 358.67 715.479 356.75L709.999 349.56C708.099 347.36 703.059 341.22 701.159 339.11C698.164 335.752 694.992 332.554 691.659 329.53C689.949 327.9 686.999 324.83 685.199 323.3L681.779 320.42L680.919 319.65L679.999 319L678.189 317.56C676.099 315.74 673.339 313.82 671.059 312.19L669.159 310.94L667.349 309.69C665.259 308.35 661.839 306.14 659.649 304.99C657.459 303.84 656.799 303.26 655.749 302.79L649.749 299.79L643.629 297C639.159 295.18 634.129 293.55 629.949 292L622.349 290L615.789 288.47L609.139 287.32C601.496 286.172 593.778 285.594 586.049 285.59C567.189 286.149 548.598 290.219 531.229 297.59C512.847 305.524 496.243 317.065 482.399 331.53C468.507 346.064 457.652 363.221 450.469 382L448.849 386.31C448.379 387.65 447.229 391.39 446.759 392.73C445.809 396.18 444.669 400.3 443.999 403.73C443.999 404.98 443.239 406.89 443.049 408.14C441.829 414.857 441.034 421.643 440.669 428.46V436.8H441.049V437.06C445.151 437.058 449.248 437.345 453.309 437.92L447.419 437.19C485.737 439.193 521.813 455.865 548.169 483.75C562.116 498.447 573.014 515.761 580.233 534.693C587.452 553.624 590.849 573.798 590.229 594.05C589.144 619.579 581.89 644.466 569.089 666.58C556.336 688.625 538.397 707.226 516.829 720.77C495.343 734.268 470.866 742.272 445.556 744.075C420.247 745.878 394.882 741.426 371.699 731.11C387.059 740.902 403.434 748.999 420.539 755.26C462.7 770.724 508.178 774.867 552.439 767.277C596.701 759.686 638.2 740.628 672.799 712C674.889 710.37 680.799 705 683.059 703.09L692.559 693.51L702.059 683.93C704.249 681.34 708.809 676.07 710.799 673.48L717.639 664.48C719.449 661.99 723.639 655.76 725.339 653.27L728.949 647.42C729.519 646.65 731.419 643.42 731.899 642.63C732.379 641.84 736.839 633.72 737.899 631.7C738.959 629.68 742.559 622.12 743.899 619.43C745.239 616.74 747.039 612.05 748.369 608.98C748.369 607.93 751.789 599.4 752.269 598.34C752.749 597.28 754.359 592.21 755.119 589.71C756.739 584.92 758.119 579.36 759.489 574.47C760.249 571.47 761.679 564.12 762.439 561.15V559C773.538 498.022 762.649 435.085 731.709 381.38ZM512.329 735.38L512.239 735L520.129 731.64L527.829 727.9C530.779 726.46 534.289 724.35 537.329 722.72L546.329 717.07C548.899 715.25 552.509 712.76 554.979 710.84C590.461 683.806 614.564 644.491 622.561 600.607C630.558 556.722 621.873 511.433 598.209 473.62L593.549 466.53L588.549 459.72L583.209 453C577.842 446.498 571.861 440.527 565.349 435.17C552.052 424.325 536.297 416.906 519.466 413.564C502.636 410.222 485.242 411.058 468.809 416C485.384 408.784 503.566 406.057 521.528 408.093C539.491 410.129 556.601 416.857 571.139 427.6C581.001 434.744 589.91 443.119 597.649 452.52C626.652 486.996 641.874 530.984 640.384 576.013C638.895 621.041 620.798 663.926 589.579 696.41C568.97 717.81 543.371 733.76 515.079 742.83C489.531 750.795 462.46 752.601 436.079 748.1C462.1 749.07 488.045 744.725 512.329 735.33V735.38ZM464.439 756.66C477.837 756.413 491.187 755.001 504.339 752.44C536.693 746.073 567.059 732.072 592.909 711.6C618.845 691.065 639.547 664.678 653.319 634.6C668.465 600.851 674.29 563.661 670.189 526.897C666.088 490.134 652.21 455.141 629.999 425.56C628.289 423.16 625.719 420.19 623.919 417.89C622.119 415.59 618.309 411.56 615.749 408.31C598.706 389.768 576.009 377.382 551.193 373.083C526.378 368.784 500.837 372.812 478.549 384.54C518.739 355.79 576.409 361.54 613.939 392.11L613.839 391.73C616.839 394.13 619.919 397 622.769 399.59C647.273 423.318 665.61 452.672 676.184 485.1C686.758 517.529 689.251 552.05 683.444 585.661C677.638 619.272 663.708 650.956 642.867 677.957C622.025 704.958 594.903 726.459 563.859 740.59L559.109 742.59L557.969 743.07L556.739 743.55L554.359 744.55C551.889 745.41 547.359 747.23 544.859 748C518.95 756.463 491.553 759.396 464.439 756.61V756.66ZM732.139 538C730.41 600.349 704.212 659.513 659.209 702.7C656.929 704.81 653.209 708.45 650.749 710.37L646.389 714L644.109 715.92L643.109 716.78L637.409 721.09C629.754 726.751 621.759 731.937 613.469 736.62L603.399 741.99C569.599 758.849 532.065 766.833 494.329 765.19C555.498 761.84 613.001 734.966 654.809 690.19C692.21 649.928 714.258 597.794 717.095 542.914C719.933 488.034 703.378 433.905 670.329 390C668.329 387.12 665.669 384.15 663.489 381.47L661.779 379.36L660.929 378.31L660.069 377.26C641.565 354.528 616.033 338.588 587.485 331.943C558.937 325.298 528.99 328.326 502.349 340.55C525.635 327.26 552.413 321.37 579.125 323.664C605.838 325.957 631.22 336.325 651.899 353.39C657.804 358.37 663.419 363.682 668.719 369.3C711.191 415.024 733.971 475.621 732.139 538Z" fill="white"/>
</g>
<defs>
<clipPath id="clip0_2_3477">
<rect width="1024" height="1024" fill="white"/>
</clipPath>
</defs>
</svg>

<svg xmlns="http://www.w3.org/2000/svg" viewBox="0 0 1024 1024">
   <circle cx="512" cy="512" r="512"/>
   <path d="M380.36 726.51c4.47 1.82 9.5 3.45 13.68 5 2.47.58 5.13 1.44 7.6 2.11l6.56 1.38 6.65 1.15a156.09 156.09 0 0 0 23.09 1.73 151.86 151.86 0 0 0 54.82-12 150.46 150.46 0 0 0 80.76-84.34l1.62-4.22c0-1.44 1.62-5.18 2.09-6.52.85-3.45 2.09-7.57 2.76-11 0-1.25.76-3.16 1-4.41a182.42 182.42 0 0 0 2.19-20v-7.86a129.17 129.17 0 0 1-14.63-1.25A152.23 152.23 0 0 1 469.8 532a154.9 154.9 0 0 1 12.65-210.47 155.92 155.92 0 0 1 169.45-28.62 246.16 246.16 0 0 0-48.84-24.06 256.65 256.65 0 0 0-251.87 42.65c-2.19 1.63-8 7-10.26 8.91a100 100 0 0 0-9.5 9.58 112.18 112.18 0 0 1-9.5 9.58c-3 2.78-6.75 8-8.74 10.45l-6.84 9c-1.81 2.49-6 8.72-7.7 11.21S295.8 375 295 376.1s-2.47 4-2.95 4.79-4.94 9-6.08 10.93-4.56 9.58-5.89 12.27l-4.47 10.45c0 1.15-3.42 9.58-4 10.64s-2 6.13-2.76 8.63c-1.62 4.79-3 10.35-4.37 15.24-.76 3-2.28 10.35-2.95 13.32v2.3a262.07 262.07 0 0 0 30.69 177.6c3.14 5.18 7.41 12.27 11 17.16 1.33 2 3.71 5.46 5.23 7.38l5.51 7.28 8.74 10.35 9.5 9.58c1.81 1.63 4.66 4.7 6.56 6.23l3.42 3 .85.67.85.67 1.71 1.44c2.19 1.82 4.94 3.74 7.22 5.37l1.81 1.25 1.9 1.25c2 1.34 5.51 3.55 7.7 4.7s2.85 1.72 3.9 2.2l6 3c1.96.89 4.43 1.95 6.24 2.71Zm188.5-453.16h2.28l6.56.58c3.61 0 7.22 1 10.83 1.44H569a190.26 190.26 0 0 0-48.69 9.63 176.65 176.65 0 0 0-69.89 43A179.65 179.65 0 0 0 430 557.06V557a156.12 156.12 0 0 0 28.5 31.34 104.74 104.74 0 0 0 96.72 19.17A100.77 100.77 0 0 1 469.1 605a119.82 119.82 0 0 1-36-27.41 182.94 182.94 0 0 1 28.5-272.68c2.09-1.53 5.32-3.55 7.6-5 4.18-2.78 9.5-5.46 13.59-7.86a76.25 76.25 0 0 1 10.17-4.79 174.2 174.2 0 0 1 60.52-13.9h15.39Zm-8.93-6.42a226.06 226.06 0 0 0-35.06 3.16 206.87 206.87 0 0 0-91.82 39.82 204.38 204.38 0 0 0-80 184 206.86 206.86 0 0 0 37.65 100c1.62 2 4.28 5.85 6 7.86 2.85 3.55 6.46 7.86 9.5 11.21a114.17 114.17 0 0 0 138.91 26.12c-42.47 30.19-103.47 21.76-140.81-13.1l-1.71-1.82-1-.86-6.37-6.52a210.35 210.35 0 0 1 13.21-300.28 205.16 205.16 0 0 1 20.43-15.91c4-2.68 8.93-5.94 13.11-8.24s9.5-5.08 13.68-7.28c1.62-.86 3.14-1.34 4.66-2.11s5.7-2.59 7.13-3.07a199 199 0 0 1 52-13c2.66 0 7.41-.77 10.07-.86h7.6a201.58 201.58 0 0 1 22.82.89ZM355.65 654a237.25 237.25 0 0 1 24.42-346.1c1.9-1.63 4.94-3.74 6.84-5.18a231.12 231.12 0 0 1 23.75-15.62 227.38 227.38 0 0 1 85.51-27.7l11.12-1h22.33l-11.12.86-11 1.44-10.93 1.82a231.14 231.14 0 0 0-92 39 234.67 234.67 0 0 0-97.46 170.33 236.16 236.16 0 0 0 12.58 99.89 231.49 231.49 0 0 0 40.47 70.73l1.71 2.11.86 1.05.95 1a178.6 178.6 0 0 0 15.11 15.53A132.11 132.11 0 0 0 521.26 683a132.08 132.08 0 0 1-149-13.13A187.22 187.22 0 0 1 355.65 654Zm376.06-272.62c-3.14-5.27-7.41-12.27-11-17.25-1.33-2-3.71-5.46-5.23-7.38l-5.48-7.19c-1.9-2.2-6.94-8.34-8.84-10.45a127.78 127.78 0 0 0-9.5-9.58c-1.71-1.63-4.66-4.7-6.46-6.23l-3.42-2.88-.86-.77-.92-.65-1.81-1.44c-2.09-1.82-4.85-3.74-7.13-5.37l-1.9-1.25-1.81-1.25c-2.09-1.34-5.51-3.55-7.7-4.7s-2.85-1.73-3.9-2.2l-6-3-6.12-2.79c-4.47-1.82-9.5-3.45-13.68-5l-7.6-2-6.56-1.53-6.65-1.15a156 156 0 0 0-23.09-1.73 151.84 151.84 0 0 0-54.82 12 149.71 149.71 0 0 0-48.83 33.94A151.22 151.22 0 0 0 450.47 382l-1.62 4.31c-.47 1.34-1.62 5.08-2.09 6.42-.95 3.45-2.09 7.57-2.76 11 0 1.25-.76 3.16-.95 4.41a162.2 162.2 0 0 0-2.38 20.32v8.34h.38v.26a87.16 87.16 0 0 1 12.26.86l-5.89-.73a149.36 149.36 0 0 1 100.75 46.56 153.42 153.42 0 0 1 42.06 110.3 158.2 158.2 0 0 1-21.14 72.53 156.58 156.58 0 0 1-52.26 54.19 154.64 154.64 0 0 1-145.13 10.34 252 252 0 0 0 48.84 24.15A256.93 256.93 0 0 0 672.8 712c2.09-1.63 8-7 10.26-8.91l9.5-9.58 9.5-9.58c2.19-2.59 6.75-7.86 8.74-10.45l6.84-9c1.81-2.49 6-8.72 7.7-11.21l3.61-5.85c.57-.77 2.47-4 2.95-4.79s4.94-8.91 6-10.93 4.66-9.58 6-12.27 3.14-7.38 4.47-10.45c0-1.05 3.42-9.58 3.9-10.64s2.09-6.13 2.85-8.63c1.62-4.79 3-10.35 4.37-15.24.76-3 2.19-10.35 2.95-13.32V559a261.88 261.88 0 0 0-30.73-177.62Zm-219.38 354-.09-.38 7.89-3.36 7.7-3.74c2.95-1.44 6.46-3.55 9.5-5.18l9-5.65c2.57-1.82 6.18-4.31 8.65-6.23a178.91 178.91 0 0 0 43.23-237.22l-4.66-7.09-5-6.81-5.34-6.72a131.45 131.45 0 0 0-17.86-17.83A104.93 104.93 0 0 0 468.81 416a103 103 0 0 1 102.33 11.6 143 143 0 0 1 26.51 24.92 182.46 182.46 0 0 1-8.07 243.89 179.53 179.53 0 0 1-74.5 46.42 169.59 169.59 0 0 1-79 5.27 191.55 191.55 0 0 0 76.25-12.77Zm-47.89 21.28a231.1 231.1 0 0 0 39.9-4.22 207.06 207.06 0 0 0 88.57-40.84 209.42 209.42 0 0 0 60.41-77A207 207 0 0 0 630 425.56c-1.71-2.4-4.28-5.37-6.08-7.67s-5.61-6.33-8.17-9.58a114.15 114.15 0 0 0-137.2-23.77c40.19-28.75 97.86-23 135.39 7.57l-.1-.38c3 2.4 6.08 5.27 8.93 7.86a209.39 209.39 0 0 1-58.91 341l-4.75 2-1.14.48-1.23.48-2.38 1c-2.47.86-7 2.68-9.5 3.45a194.86 194.86 0 0 1-80.42 8.61ZM732.14 538a237.39 237.39 0 0 1-72.93 164.7c-2.28 2.11-6 5.75-8.46 7.67l-4.36 3.63-2.28 1.92-1 .86-5.7 4.31a233 233 0 0 1-23.94 15.53l-10.07 5.37a222.67 222.67 0 0 1-109.07 23.2 237.32 237.32 0 0 0 160.48-75A234.16 234.16 0 0 0 670.33 390c-2-2.88-4.66-5.85-6.84-8.53l-1.71-2.11-.85-1.05-.86-1.05a132.25 132.25 0 0 0-157.72-36.71 132.09 132.09 0 0 1 149.55 12.84 203.41 203.41 0 0 1 16.82 15.91A237.63 237.63 0 0 1 732.14 538Z" style="fill:#fff"/>
</svg>
